public/images/icons/services/mantras-chanting.svg

<svg xmlns="http://www.w3.org/2000/svg" fill="none" stroke="#6f4278" stroke-linecap="round" stroke-linejoin="round" stroke-width="2" viewBox="0 0 64 64"><path d="M14 34q-6 0-6-6c0-4 4-6 8-6s6 2 6 4-2 4-4 6"/><path d="M18 32c2 0 6-2 6-6s-2-6-4-6m4 6c2-2 4-4 6-4q6 0 6 6t-6 6m-2-14c0-2 2-4 4-4s4 2 2 4m-3-6c1-2 3-2 5 0"/><circle cx="33" cy="11" r="1"/><path d="M40 26c2-4 2 10 0 6m4-10c4-4 4 18 0 14m5-18c5-4 5 26 0 22m5-26c6-4 6 34 0 30"/></svg>

<svg xmlns="http://www.w3.org/2000/svg" viewBox="0 0 64 64" fill="none" stroke="#6F4278" stroke-width="2" stroke-linecap="round" stroke-linejoin="round">
  <!-- Small Om symbol in center-left -->
  <path d="M14,34 C10,34 8,32 8,28 C8,24 12,22 16,22 C20,22 22,24 22,26 C22,28 20,30 18,32"/>
  <path d="M18,32 C20,32 24,30 24,26 C24,22 22,20 20,20"/>
  <path d="M24,26 C26,24 28,22 30,22 C34,22 36,24 36,28 C36,32 34,34 30,34"/>
  <path d="M28,20 C28,18 30,16 32,16 C34,16 36,18 34,20"/>
  <!-- Dot and crescent for Om -->
  <path d="M31,14 C32,12 34,12 36,14"/>
  <circle cx="33" cy="11" r="1"/>
  <!-- Sound waves emanating to the right -->
  <path d="M40,26 C42,22 42,36 40,32"/>
  <path d="M44,22 C48,18 48,40 44,36"/>
  <path d="M49,18 C54,14 54,44 49,40"/>
  <path d="M54,14 C60,10 60,48 54,44"/>
</svg>
